X:1
T:사랑이 식었다고 말해도 돼
T:사랑이 식었다고 말해도 돼
T:한상원,이진성 작사,작곡
T:악보바다
T:악보바다
C:한상원,이진성 작사,작곡
Z:악보바다
L:1/8
M:4/4
K:E
V:1 treble nm="남성" snm="M."
V:1
 GBFB E2 D/E/B/D/ |[M:2/4] C2 A,/B,/C/E/ |[M:4/4] z8 || G/F/F z z EFG z | z8 | z8 | z8 | %7
 G/F/ F2 z BBG z | FE E/E/C/E/ E/EFG z/ | A/ z E/ EE/ z/ AGEE | DE E2 z4 | CG A/A/A/B/ GF/F/ F2 | %12
 B,B B/B/B/c/ dc/G/ G2 | AG/A/ AG/A/ AG/F/ EE/F/ | F2 z2 efg z || (gf/)feB/ Befg | %16
 g2 f/e(f/ e)ef z | a2 a/b(f/ e) z c/(b/ z | b/a/4b/4(a) a/)a/4g/4f/g/ fe f/g(g/ | %19
 g) z f/gg/ gefg | (g3 f/g/) f4 | z aag a(g/e/) ed/(e/ | e4) z4 | z8 | z8 || G/F/F z z EFG z | %26
 G<F z E/(G/ E)EFG | G/F/F z z BBG z | F/E/ E2 C/(E/ E)FG z | G/F/F z z BBB z | B<e eB/(B/ B)EFG | %31
 A/G/ E2 C/E/ A/G(E/ E)D/(F/ | F<)(E E)(B G/F/E) z2 || AA A/A/A/B/ (GF/)(F/ F2) | %34
 BB B/B/d/e/ dc/(G/ G2) | cB/(c/ c)B/(c/ c)e/(e/ e/)g(a/4g/4 | f) z ef g z z2 || %37
 (g>f) fe/(B/ B)efg | g2 f/e(f/ e)efg | a2 a/b(f/ e) z c/((b/ z | b)a (a/)a/)a/4g/4a/ fe f/g(g/ | %41
 g) z f/gg/ gefg | (g3 f/g/) f4 | z aag a(g/e/) ed/((f/ || f/)e/4f/4 e2) z e/e/e/(e/ e/)e/e/f/ | %45
 (f/B/)B z2 ^e/e/e/(f/ f/)gg/ | g/a/ a2 z a/g/a b(b | b4) bba z || g2 f/e(B/ B)efg | %49
 g2 f/e(f/ e)e fg/(a/ | a2) a/b(g/4f/4 e3/2f/4g/4) A/(b/ z | %51
 b/)!fermata!aa/ a/4g/4f/g/fef/ g(g/ z/ | g) z f/gg/ gefg | (gg/)bc'/ c'4 z | aabg f/(f/ e2) z | %55
[M:2/4] z a ag |[M:4/4] a/(ab/ b6) |[M:3/4] z2 z2 gf/g/4(f/4 ||[M:4/4] e4) z4 | !fermata!z8 | z8 | %61
 z8 |] %62

